X: 1
T: Tropanka from Dobrudja
Z: John Chambers <jc@trillian.mit.edu>
N: from handwritten ms by Bill Tomczak dated 1980
M: 2/4
L: 1/16
K: G
"A"
|: "G"d^cdG "C"de~e2 | "G"d^cdG d=c~B2 | "G"d^cdG "D7"B=cAc |1,3 ~B2AG "G"GBdG :|2,4 ~B2AG "G"GD~G2 :|
"B"
|::: "G"d^cdG "D7"B=cAc | ~B2AG "G"GBdG | "G"d^cdG "D7"B=cAc | ~B2AG "G"GD"fine"~G2 :::|
"C"
|: "G"d^cdG "C"fgga | "D7"~f2ed "G"d=c~B2 | "G"d^cdG "D7"B=cAc |1,3 ~B2AG "G"GBdG :|2,4 ~B2AG "G"GD~G2 :|
"B"
|::: "G"d^cdG "D7"B=cAc | ~B2AG "G"GBdG | "G"d^cdG "D7"B=cAc | ~B2AG "G"GD"fine"~G2 :::|
K: Gmix
"D"
|::: "G"e=fdf ~e2d^c | dGB^c dGef | gefd ~e2d^c | dGB^c dGdG :::|
"E"
|::: "G"gefd ~e2d^c | dGB^c dGef | gefd ~e2d^c | dGB^c dGdG !d.C.![|]:::|
%%sep 1 1 500
%%sep 1 1 500
